docs/assets/brands/lineicons-white.svg

<svg width="188" height="40" viewBox="0 0 188 40" fill="none" xmlns="http://www.w3.org/2000/svg">
<g clip-path="url(#clip0_2165_2948)">
<mask id="mask0_2165_2948" style="mask-type:luminance" maskUnits="userSpaceOnUse" x="1" y="5" width="185" height="30">
<path d="M185.95 5H1.5V35H185.95V5Z" fill="white"/>
</mask>
<g mask="url(#mask0_2165_2948)">
<path d="M45.5152 7.30566H41.1641V32.1453H55.9198V28.1377H45.5152V7.30566Z" fill="white"/>
<path d="M60.9122 11.9924C62.2709 11.9924 63.3931 10.8702 63.3931 9.47328C63.3931 8.07634 62.2709 7 60.9122 7C59.4847 7 58.3625 8.0916 58.3625 9.48092C58.3625 10.8702 59.4923 11.9924 60.9122 11.9924ZM58.8511 32.145H62.9961V15.3511H58.8511V32.145Z" fill="white"/>
<path d="M71.4236 32.1449V23.1068C71.4236 20.3892 72.9809 18.6182 75.5381 18.6182C77.6831 18.6182 79.0725 19.977 79.0725 22.8014V32.1526H83.2175V21.809C83.2175 17.4579 81.0419 14.8472 76.8282 14.8472C74.5534 14.8472 72.5152 15.8319 71.4618 17.5342L71.1183 15.3587H67.2786V32.1526H71.4236V32.1449Z" fill="white"/>
<path d="M94.8053 32.5879C99.187 32.5879 102.248 30.3818 102.958 26.7024H99.1183C98.6374 28.2978 97.1488 29.1833 94.8664 29.1833C92.1107 29.1833 90.5534 27.6871 90.2481 24.7329L102.889 24.6948V23.4429C102.889 18.2062 99.6908 14.8398 94.6603 14.8398C89.7366 14.8398 86.3015 18.4734 86.3015 23.7482C86.3015 28.9467 89.8053 32.5879 94.8053 32.5879ZM94.6985 18.2444C97.1794 18.2444 98.7748 19.7711 98.7748 22.0841H90.3473C90.7519 19.5726 92.2481 18.2444 94.6985 18.2444Z" fill="white"/>
<path d="M108.279 11.9924C109.637 11.9924 110.759 10.8702 110.759 9.47328C110.759 8.07634 109.637 7 108.279 7C106.851 7 105.737 8.0916 105.737 9.48092C105.737 10.8702 106.843 11.9924 108.279 11.9924ZM106.202 32.145H110.347V15.3511H106.202V32.145Z" fill="white"/>
<path d="M113.653 23.7174C113.653 29.0533 116.981 32.5877 122.08 32.5877C126.462 32.5877 129.729 29.9006 130.233 25.9923H126.05C125.607 27.8319 124.149 28.8472 122.072 28.8472C119.424 28.8472 117.79 26.8777 117.79 23.7174C117.79 20.5571 119.561 18.5495 122.21 18.5495C124.179 18.5495 125.576 19.5342 126.05 21.4426H130.195C129.752 17.3968 126.622 14.8472 122.042 14.8472C117.088 14.8472 113.653 18.519 113.653 23.7174Z" fill="white"/>
<path d="M132.332 23.7176C132.332 28.9543 136.103 32.5573 141.309 32.5573C146.508 32.5573 150.286 28.9619 150.286 23.7176C150.286 18.481 146.515 14.8779 141.309 14.8779C136.111 14.8856 132.332 18.481 132.332 23.7176ZM136.485 23.7176C136.485 20.6566 138.454 18.5879 141.309 18.5879C144.164 18.5879 146.134 20.6642 146.134 23.7176C146.134 26.7711 144.164 28.8474 141.309 28.8474C138.454 28.855 136.485 26.7787 136.485 23.7176Z" fill="white"/>
<path d="M157.706 32.1449V23.1068C157.706 20.3892 159.263 18.6182 161.821 18.6182C163.966 18.6182 165.355 19.977 165.355 22.8014V32.1526H169.5V21.809C169.5 17.4579 167.324 14.8472 163.111 14.8472C160.836 14.8472 158.798 15.8319 157.744 17.5342L157.401 15.3587H153.561V32.1526H157.706V32.1449Z" fill="white"/>
<path d="M185.95 27.0839C185.95 30.4808 183.065 32.5953 178.92 32.5953C174.737 32.5953 172.095 30.3434 172.088 27.061H176.019C176.05 28.519 177.141 29.4426 179.042 29.4426C180.973 29.4426 182.034 28.6564 182.034 27.435C182.034 26.58 181.599 25.977 180.103 25.6335L177.072 24.9159C174.05 24.2365 172.592 22.809 172.592 20.122C172.592 16.8243 175.37 14.8472 179.248 14.8472C183.019 14.8472 185.561 17.0304 185.599 20.29H181.66C181.637 18.8625 180.676 17.9464 179.08 17.9464C177.454 17.9464 176.5 18.6945 176.5 19.9464C176.5 20.9006 177.256 21.5037 178.676 21.8472L181.706 22.5648C184.309 23.1526 185.737 24.3129 185.927 26.519L185.95 27.0839Z" fill="white"/>
<path d="M25.2173 31.4524C26.3089 30.3608 26.3089 28.5974 25.2173 27.5058L6.2631 8.55161C5.17149 7.46001 3.40813 7.46001 2.31654 8.55161C1.22493 9.64322 1.22493 11.4066 2.31654 12.4982L21.2707 31.4524C22.3623 32.544 24.1257 32.544 25.2173 31.4524Z" fill="#6566FF"/>
<path d="M24.7135 17.4599C25.8051 16.3683 25.8051 14.605 24.7135 13.5134L17.0189 5.8187C15.9273 4.7271 14.1639 4.7271 13.0723 5.8187C11.9807 6.91031 11.9807 8.67366 13.0723 9.76527L20.767 17.4599C21.8586 18.5439 23.6219 18.5439 24.7135 17.4599Z" fill="#6566FF"/>
<path d="M14.4616 34.1851C15.5532 33.0935 15.5532 31.3301 14.4616 30.2385L6.76691 22.5438C5.67531 21.4522 3.91195 21.4522 2.82035 22.5438C1.72875 23.6354 1.72875 25.3988 2.82035 26.4904L10.515 34.1851C11.6066 35.2767 13.37 35.2767 14.4616 34.1851Z" fill="#6566FF"/>
</g>
</g>
<defs>
<clipPath id="clip0_2165_2948">
<rect width="185" height="30" fill="white" transform="translate(1.5 5)"/>
</clipPath>
</defs>
</svg>

<svg xmlns="http://www.w3.org/2000/svg" width="188" height="40" fill="none"><g clip-path="url(#a)"><mask id="b" width="185" height="30" x="1" y="5" maskUnits="userSpaceOnUse" style="mask-type:luminance"><path fill="#fff" d="M185.95 5H1.5v30h184.45z"/></mask><g mask="url(#b)"><path fill="#fff" d="M45.515 7.306h-4.35v24.84H55.92v-4.008H45.515zm15.397 4.686c1.359 0 2.481-1.122 2.481-2.519A2.465 2.465 0 0 0 60.913 7c-1.428 0-2.55 1.092-2.55 2.48 0 1.39 1.13 2.512 2.55 2.512m-2.06 20.153h4.144V15.351h-4.145zm12.571 0v-9.038c0-2.718 1.557-4.489 4.114-4.489 2.145 0 3.535 1.359 3.535 4.183v9.352h4.145V21.809c0-4.351-2.176-6.962-6.39-6.962-2.275 0-4.313.985-5.366 2.687l-.344-2.175h-3.84v16.794h4.146zm23.381.443c4.382 0 7.443-2.206 8.153-5.886h-3.84c-.48 1.596-1.97 2.481-4.252 2.481-2.755 0-4.313-1.496-4.618-4.45l12.641-.038v-1.252c0-5.237-3.198-8.603-8.229-8.603-4.923 0-8.358 3.633-8.358 8.908 0 5.199 3.503 8.84 8.503 8.84m-.107-14.344c2.481 0 4.077 1.527 4.077 3.84h-8.428c.405-2.511 1.901-3.84 4.352-3.84m13.58-6.252c1.358 0 2.48-1.122 2.48-2.519A2.464 2.464 0 0 0 108.279 7c-1.428 0-2.542 1.092-2.542 2.48 0 1.39 1.106 2.512 2.542 2.512m-2.077 20.153h4.145V15.351h-4.145zm7.451-8.428c0 5.336 3.328 8.87 8.427 8.87 4.382 0 7.649-2.686 8.153-6.595h-4.183c-.443 1.84-1.901 2.855-3.978 2.855-2.648 0-4.282-1.97-4.282-5.13s1.771-5.167 4.42-5.167c1.969 0 3.366.984 3.84 2.893h4.145c-.443-4.046-3.573-6.596-8.153-6.596-4.954 0-8.389 3.672-8.389 8.87m18.679.001c0 5.236 3.771 8.84 8.977 8.84 5.199 0 8.977-3.596 8.977-8.84 0-5.237-3.771-8.84-8.977-8.84-5.198.008-8.977 3.603-8.977 8.84m4.153 0c0-3.061 1.969-5.13 4.824-5.13s4.825 2.076 4.825 5.13-1.97 5.13-4.825 5.13c-2.855.007-4.824-2.07-4.824-5.13m21.221 8.427v-9.038c0-2.718 1.557-4.489 4.115-4.489 2.145 0 3.534 1.359 3.534 4.183v9.352h4.145V21.809c0-4.351-2.176-6.962-6.389-6.962-2.275 0-4.313.985-5.367 2.687l-.343-2.175h-3.84v16.794h4.145zm28.244-5.061c0 3.397-2.885 5.511-7.03 5.511-4.183 0-6.825-2.252-6.832-5.534h3.931c.031 1.458 1.122 2.382 3.023 2.382 1.931 0 2.992-.787 2.992-2.008 0-.855-.435-1.458-1.931-1.801l-3.031-.718c-3.022-.68-4.48-2.107-4.48-4.794 0-3.298 2.778-5.275 6.656-5.275 3.771 0 6.313 2.183 6.351 5.443h-3.939c-.023-1.427-.984-2.344-2.58-2.344-1.626 0-2.58.749-2.58 2 0 .955.756 1.558 2.176 1.901l3.03.718c2.603.588 4.031 1.748 4.221 3.954z"/><path fill="#6566FF" d="M25.217 31.452a2.787 2.787 0 0 0 0-3.946L6.263 8.552a2.787 2.787 0 0 0-3.946 0 2.787 2.787 0 0 0 0 3.946L21.27 31.452a2.787 2.787 0 0 0 3.946 0m-.502-13.992a2.787 2.787 0 0 0 0-3.947L17.019 5.82a2.787 2.787 0 0 0-3.947 0 2.787 2.787 0 0 0 0 3.946l7.695 7.695a2.8 2.8 0 0 0 3.947 0M14.462 34.185a2.787 2.787 0 0 0 0-3.947l-7.695-7.694a2.787 2.787 0 0 0-3.947 0 2.787 2.787 0 0 0 0 3.946l7.695 7.695a2.787 2.787 0 0 0 3.947 0"/></g></g><defs><clipPath id="a"><path fill="#fff" d="M1.5 5h185v30H1.5z"/></clipPath></defs></svg>
